assets/icons/qvision/add_alert.svg

<svg xmlns="http://www.w3.org/2000/svg" height="24" viewBox="0 0 24 24" width="24"><path d="M0 0h24v24H0V0z" fill="none"/><path d="M10.01 21.01c0 1.1.89 1.99 1.99 1.99s1.99-.89 1.99-1.99h-3.98zm8.87-4.19V11c0-3.25-2.25-5.97-5.29-6.69v-.72C13.59 2.71 12.88 2 12 2s-1.59.71-1.59 1.59v.72C7.37 5.03 5.12 7.75 5.12 11v5.82L3 18.94V20h18v-1.06l-2.12-2.12zM16 13.01h-3v3h-2v-3H8V11h3V8h2v3h3v2.01z"/></svg>

<svg width="24" height="24" viewBox="0 0 24 24" fill="none" xmlns="http://www.w3.org/2000/svg">
<g clip-path="url(#clip0_147_1282)">
<path d="M10.01 21.01C10.01 22.11 10.9 23 12 23C13.1 23 13.99 22.11 13.99 21.01H10.01ZM18.88 16.82V11C18.88 7.75 16.63 5.03 13.59 4.31V3.59C13.59 2.71 12.88 2 12 2C11.12 2 10.41 2.71 10.41 3.59V4.31C7.37 5.03 5.12 7.75 5.12 11V16.82L3 18.94V20H21V18.94L18.88 16.82ZM16 13.01H13V16.01H11V13.01H8V11H11V8H13V11H16V13.01Z" fill="#323232"/>
</g>
<defs>
<clipPath id="clip0_147_1282">
<rect width="24" height="24" fill="white"/>
</clipPath>
</defs>
</svg>
